24x24/apps/appimagekit-beekeeper-studio.svg

<svg xmlns="http://www.w3.org/2000/svg" width="24" height="24" version="1.1">
 <path style="opacity:0.2" d="m 11.981446,2.5000002 c -0.533698,0 -1.065642,0.1405592 -1.54004,0.4209065 L 8.8964845,3.8232679 7.2158205,4.7939897 4.5449215,6.3526135 C 3.5825725,6.9133085 3,7.9392845 3,9.0606735 v 6.8790385 c 0,1.107714 0.582572,2.147365 1.5449215,2.708061 l 5.9101565,3.431706 c 0.96235,0.560695 2.141049,0.560695 3.089844,0 l 5.910156,-3.431707 C 20.417427,18.087077 21,17.061101 21,15.939712 V 9.0606735 c -0.01356,-1.121389 -0.609799,-2.147365 -1.558594,-2.70806 L 13.53125,2.9209067 C 13.050075,2.6405594 12.515143,2.5000002 11.981446,2.5000002 Z"/>
 <path style="fill:#fad83b" d="m 11.981446,2.0000001 c -0.533698,0 -1.065642,0.1405592 -1.54004,0.4209065 L 8.8964845,3.3232677 7.2158205,4.2939895 4.5449215,5.8526135 C 3.5825725,6.4133085 3,7.4392845 3,8.5606735 v 6.8790385 c 0,1.107714 0.582572,2.147365 1.5449215,2.708061 l 5.9101565,3.431706 c 0.96235,0.560695 2.141049,0.560695 3.089844,0 l 5.910156,-3.431707 C 20.417427,17.587077 21,16.561101 21,15.439712 V 8.5606735 c -0.01356,-1.121389 -0.609799,-2.147365 -1.558594,-2.70806 L 13.53125,2.4209066 C 13.050075,2.1405593 12.515143,2.0000001 11.981446,2.0000001 Z"/>
 <path style="opacity:0.1" d="m 9,3.7614688 -0.1035156,0.0625 -1.6796875,0.96875 L 7,4.9196719 v 3.5507812 2.6523439 1.03125 1.533453 c 0,1.175192 0.6105991,2.248342 1.6191406,2.835938 l 1.7617184,1.03125 C 10.878027,17.855652 11.446012,18 12,18 c 0.553986,0 1.120019,-0.15868 1.617188,-0.445312 l 1.763671,-1.03125 C 16.3894,15.935842 17,14.84836 17,13.6875 V 11.138422 C 17,9.9632289 16.3894,8.8861741 15.380859,8.2985781 l -1.763671,-1.03125 C 13.120019,6.9663641 12.553987,6.8220156 12,6.8220156 V 9.49975 c 1.656854,0 3,1.343146 3,3 0,1.656854 -1.343146,3 -3,3 -1.591866,-6.7e-4 -2.906049,-1.244557 -2.9941406,-2.833984 L 9,12.669672 V 12.49975 8.2126406 7.2517031 Z m 2.5,3.1386718 c -0.161732,0.042995 -0.338268,0.084591 -0.5,0.15625 v 2.6171875 c 0.162531,-0.058586 0.32982,-0.1030216 0.5,-0.1328125 z M 10.5,7.2673281 10,7.5544375 V 10.269281 C 10.153715,10.131297 10.321271,10.009557 10.5,9.906 Z"/>
 <path style="fill:#17191e" d="m 9,3.2617188 -0.1035156,0.0625 -1.6796875,0.96875 L 7,4.4199219 v 3.5507812 2.6523439 1.03125 1.533453 c 0,1.175192 0.6105991,2.248342 1.6191406,2.835938 l 1.7617184,1.03125 C 10.878027,17.355902 11.446012,17.50025 12,17.50025 c 0.553986,0 1.120019,-0.15868 1.617188,-0.445312 l 1.763671,-1.03125 C 16.3894,15.436092 17,14.34861 17,13.18775 V 10.638672 C 17,9.4634789 16.3894,8.3864241 15.380859,7.7988281 l -1.763671,-1.03125 C 13.120019,6.4666141 12.553987,6.3222656 12,6.3222656 V 9 c 1.656854,0 3,1.343146 3,3 0,1.656854 -1.343146,3 -3,3 -1.591866,-6.7e-4 -2.906049,-1.244557 -2.9941406,-2.833984 L 9,12.169922 V 12 7.7128906 6.7519531 Z m 2.5,3.1386718 c -0.161732,0.042995 -0.338268,0.084591 -0.5,0.15625 v 2.6171875 c 0.162531,-0.058586 0.32982,-0.1030216 0.5,-0.1328125 z M 10.5,6.7675781 10,7.0546875 V 9.7695312 C 10.153715,9.6315468 10.321271,9.5098073 10.5,9.40625 Z"/>
 <path style="opacity:0.2;fill:#f4f4f7" d="m 11.981446,2 c -0.533698,0 -1.065641,0.1405511 -1.54004,0.4208985 L 8.8964845,3.3232422 7.2158205,4.2939453 4.5449219,5.852539 C 3.5825729,6.413234 3,7.439158 3,8.560547 v 0.5 C 3,7.939158 3.5825729,6.913234 4.5449219,6.352539 L 7.2158205,4.7939453 8.8964845,3.8232422 10.441406,2.9208985 C 10.915805,2.6405511 11.447748,2.5 11.981446,2.5 c 0.533697,0 1.068629,0.1405511 1.549804,0.4208985 L 19.441406,6.352539 C 20.390201,6.913234 20.986445,7.939158 21,9.060547 v -0.5 C 20.986445,7.439158 20.390201,6.413234 19.441406,5.852539 L 13.53125,2.4208985 C 13.050075,2.1405511 12.515143,2 11.981446,2 Z"/>
</svg>

<svg xmlns="http://www.w3.org/2000/svg" width="24" height="24"><path style="opacity:.2" d="M11.981 2.5c-.533 0-1.065.14-1.54.42l-1.545.903-1.68.971-2.671 1.559A3.118 3.118 0 0 0 3 9.06v6.879c0 1.107.583 2.147 1.545 2.708l5.91 3.431c.962.561 2.141.561 3.09 0l5.91-3.431A3.118 3.118 0 0 0 21 15.94V9.06a3.19 3.19 0 0 0-1.559-2.707l-5.91-3.432a3.077 3.077 0 0 0-1.55-.421z"/><path style="fill:#fad83b" d="M11.981 2c-.533 0-1.065.14-1.54.42l-1.545.903-1.68.971-2.671 1.559A3.118 3.118 0 0 0 3 8.56v6.879c0 1.107.583 2.147 1.545 2.708l5.91 3.431c.962.561 2.141.561 3.09 0l5.91-3.431A3.118 3.118 0 0 0 21 15.44V8.56a3.19 3.19 0 0 0-1.559-2.707l-5.91-3.432A3.077 3.077 0 0 0 11.981 2z"/><path style="opacity:.1" d="m9 3.761-.104.063-1.68.969L7 4.92V13.688c0 1.175.61 2.248 1.62 2.835l1.76 1.032A3.136 3.136 0 0 0 12 18c.554 0 1.12-.159 1.617-.445l1.764-1.032A3.282 3.282 0 0 0 17 13.688v-2.55a3.27 3.27 0 0 0-1.62-2.84l-1.763-1.03A3.13 3.13 0 0 0 12 6.821V9.5a3 3 0 1 1-2.994 3.166L9 12.67V7.252zm2.5 3.14c-.162.042-.338.084-.5.155v2.618a3 3 0 0 1 .5-.133zm-1 .366-.5.287v2.715a3 3 0 0 1 .5-.363z"/><path style="fill:#17191e" d="m9 3.262-.104.062-1.68.969L7 4.42V13.188c0 1.175.61 2.248 1.62 2.836l1.76 1.03A3.136 3.136 0 0 0 12 17.5c.554 0 1.12-.158 1.617-.445l1.764-1.031A3.282 3.282 0 0 0 17 13.188v-2.55a3.27 3.27 0 0 0-1.62-2.84l-1.763-1.03A3.13 3.13 0 0 0 12 6.322V9a3 3 0 1 1-2.994 3.166L9 12.17V6.752zM11.5 6.4c-.162.043-.338.085-.5.157v2.617a3 3 0 0 1 .5-.133zm-1 .368-.5.287V9.77a3 3 0 0 1 .5-.364z"/><path style="opacity:.2;fill:#f4f4f7" d="M11.981 2c-.533 0-1.065.14-1.54.42l-1.545.903-1.68.97-2.671 1.56A3.118 3.118 0 0 0 3 8.56v.5c0-1.122.583-2.148 1.545-2.708l2.67-1.56 1.681-.97 1.545-.902a3.024 3.024 0 0 1 1.54-.421c.534 0 1.07.14 1.55.42l5.91 3.433A3.19 3.19 0 0 1 21 9.06v-.5a3.19 3.19 0 0 0-1.559-2.708l-5.91-3.432A3.077 3.077 0 0 0 11.981 2z"/></svg>
